images/Scale.svg

<svg height="22" viewBox="0 0 22 22" width="22" xmlns="http://www.w3.org/2000/svg"><g><path d="m8 12h-6c-1.1045695 0-2 .8954305-2 2v6c0 1.1045695.8954305 2 2 2h6c1.1045695 0 2-.8954305 2-2v-6c0-1.1045695-.8954305-2-2-2zm-6 8v-6h6v6z"/><path d="m14 16v2h6c1.1045695 0 2-.8954305 2-2v-14c0-1.1045695-.8954305-2-2-2h-14c-1.1045695 0-2 .8954305-2 2v6h2v-6h14v14"/></g></svg>

<?xml version="1.0" encoding="UTF-8"?>
<svg width="22px" height="22px" viewBox="0 0 22 22" version="1.1" xmlns="http://www.w3.org/2000/svg" xmlns:xlink="http://www.w3.org/1999/xlink">
    <title>Group</title>
    <g id="Page-1" stroke="none" stroke-width="1" fill="none" fill-rule="evenodd">
        <g id="Group" fill="#000000" fill-rule="nonzero">
            <path d="M8,12 L2,12 C0.8954305,12 0,12.8954305 0,14 L0,20 C0,21.1045695 0.8954305,22 2,22 L8,22 C9.1045695,22 10,21.1045695 10,20 L10,14 C10,12.8954305 9.1045695,12 8,12 Z M2,20 L2,14 L8,14 L8,20 L2,20 Z" id="Shape"></path>
            <path d="M14,16 L14,18 L20,18 C21.1045695,18 22,17.1045695 22,16 L22,2 C22,0.8954305 21.1045695,0 20,0 L6,0 C4.8954305,0 4,0.8954305 4,2 L4,8 L6,8 L6,2 L20,2 L20,16" id="Path"></path>
        </g>
    </g>
</svg>
